public/static/icons/email-icon.svg

<svg version="1.1" xmlns="http://www.w3.org/2000/svg" xmlns:xlink="http://www.w3.org/1999/xlink" width="20" height="16" viewBox="0,0,256,204.79688"><g fill="#1868df" fill-rule="nonzero" stroke="none" stroke-width="1" stroke-linecap="butt" stroke-linejoin="miter" stroke-miterlimit="10" stroke-dasharray="" stroke-dashoffset="0" font-family="none" font-weight="none" font-size="none" text-anchor="none" style="mix-blend-mode: normal"><g transform="translate(0,1.82756) scale(12.8,12.8)"><path d="M1.9196,4.84372c0.253,0.17853 1.01562,0.70876 2.28792,1.59042c1.27233,0.88166 2.24703,1.56051 2.92412,2.0366c0.07439,0.05219 0.23244,0.16563 0.47421,0.34048c0.24182,0.17497 0.44275,0.31637 0.60263,0.42422c0.16,0.10781 0.35342,0.22876 0.58046,0.36264c0.22696,0.13377 0.44091,0.23439 0.6418,0.30101c0.20093,0.06715 0.38692,0.10042 0.55802,0.10042h0.01122h0.01122c0.1711,0 0.3572,-0.03331 0.5581,-0.10042c0.2009,-0.06662 0.415,-0.16735 0.6418,-0.30101c0.2268,-0.13404 0.4203,-0.25487 0.5803,-0.36264c0.16,-0.10785 0.3607,-0.24925 0.6026,-0.42422c0.2418,-0.17501 0.4,-0.28829 0.4744,-0.34048c0.6844,-0.47609 2.4256,-1.68521 5.2231,-3.62725c0.5432,-0.3793 0.9969,-0.83698 1.3615,-1.37272c0.3648,-0.53551 0.547,-1.09728 0.547,-1.68502c0,-0.49114 -0.1768,-0.91156 -0.5303,-1.26123c-0.3534,-0.34975 -0.772,-0.52452 -1.2555,-0.52452h-16.42856c-0.57288,0 -1.01375,0.19342 -1.32253,0.58027c-0.30874,0.38692 -0.46311,0.87055 -0.46311,1.45086c0,0.46874 0.20468,0.97669 0.61385,1.52353c0.40912,0.54688 0.84452,0.97661 1.30575,1.28906z"></path><path d="M18.8838,6.03781c-2.4403,1.65163 -4.2932,2.93522 -5.5579,3.8505c-0.4241,0.31239 -0.7681,0.55619 -1.0323,0.73099c-0.2643,0.1748 -0.6156,0.3534 -1.0547,0.5356c-0.4389,0.1825 -0.848,0.2734 -1.2275,0.2734h-0.0114h-0.0112c-0.37946,0 -0.78874,-0.0909 -1.22765,-0.2734c-0.43892,-0.1822 -0.79054,-0.3608 -1.05468,-0.5356c-0.26406,-0.1748 -0.60821,-0.4186 -1.03227,-0.73099c-1.00452,-0.73656 -2.85345,-2.02023 -5.54686,-3.8505c-0.42421,-0.28255 -0.79995,-0.60642 -1.12734,-0.97095v8.86134c0,0.4914 0.17478,0.9116 0.52452,1.2613c0.34967,0.3498 0.77013,0.5247 1.26123,0.5247h16.42865c0.4909,0 0.9114,-0.1749 1.2611,-0.5247c0.3498,-0.3499 0.5245,-0.7699 0.5245,-1.2613v-8.86134c-0.32,0.35698 -0.6919,0.68085 -1.1162,0.97095z"></path></g></g></svg>

<svg width="20" height="16" viewBox="0 0 20 16" fill="none" xmlns="http://www.w3.org/2000/svg">
<path d="M1.9196 4.84372C2.1726 5.02225 2.93522 5.55248 4.20752 6.43414C5.47985 7.3158 6.45455 7.99465 7.13164 8.47074C7.20603 8.52293 7.36408 8.63637 7.60585 8.81122C7.84767 8.98619 8.0486 9.12759 8.20848 9.23544C8.36848 9.34325 8.5619 9.4642 8.78894 9.59808C9.0159 9.73185 9.22985 9.83247 9.43074 9.89909C9.63167 9.96624 9.81766 9.99951 9.98876 9.99951H9.99998H10.0112C10.1823 9.99951 10.3684 9.9662 10.5693 9.89909C10.7702 9.83247 10.9843 9.73174 11.2111 9.59808C11.4379 9.46404 11.6314 9.34321 11.7914 9.23544C11.9514 9.12759 12.1521 8.98619 12.394 8.81122C12.6358 8.63621 12.794 8.52293 12.8684 8.47074C13.5528 7.99465 15.294 6.78553 18.0915 4.84349C18.6347 4.46419 19.0884 4.00651 19.453 3.47077C19.8178 2.93526 20 2.37349 20 1.78575C20 1.29461 19.8232 0.874191 19.4697 0.524523C19.1163 0.174776 18.6977 0 18.2142 0H1.78564C1.21276 0 0.77189 0.193422 0.463111 0.580267C0.15437 0.967189 0 1.45082 0 2.03113C0 2.49987 0.20468 3.00782 0.613846 3.55466C1.02297 4.10154 1.45837 4.53127 1.9196 4.84372Z" fill="#D8A835"/>
<path d="M18.8838 6.03781C16.4435 7.68944 14.5906 8.97303 13.3259 9.88831C12.9018 10.2007 12.5578 10.4445 12.2936 10.6193C12.0293 10.7941 11.678 10.9727 11.2389 11.1549C10.8 11.3374 10.3909 11.4283 10.0114 11.4283H10H9.9888C9.60934 11.4283 9.20006 11.3374 8.76115 11.1549C8.32223 10.9727 7.97061 10.7941 7.70647 10.6193C7.44241 10.4445 7.09826 10.2007 6.6742 9.88831C5.66968 9.15175 3.82075 7.86808 1.12734 6.03781C0.703129 5.75526 0.327387 5.43139 0 5.06686V13.9282C0 14.4196 0.174776 14.8398 0.524523 15.1895C0.874192 15.5393 1.29465 15.7142 1.78575 15.7142H18.2144C18.7053 15.7142 19.1258 15.5393 19.4755 15.1895C19.8253 14.8396 20 14.4196 20 13.9282V5.06686C19.68 5.42384 19.3081 5.74771 18.8838 6.03781Z" fill="#D8A835"/>
</svg>
